flaticon/productivity/smartphone.svg

<svg xmlns="http://www.w3.org/2000/svg" width="32" height="32" viewBox="0 0 24 24">
    <path d="M 9.703125 20.679688 L 14.207031 20.679688 L 14.207031 21.699219 L 9.703125 21.699219 Z M 9.703125 20.679688"/>
    <path d="M 3.496094 0 L 3.496094 24 L 20.503906 24 L 20.503906 0 Z M 9.226562 18.378906 L 7.835938 18.378906 C 8.074219 18.007812 8.210938 17.574219 8.210938 17.117188 C 8.210938 15.8125 7.148438 14.753906 5.847656 14.753906 C 5.355469 14.753906 4.894531 14.90625 4.515625 15.171875 L 4.515625 13.761719 C 4.941406 13.589844 5.386719 13.503906 5.847656 13.503906 C 7.839844 13.503906 9.460938 15.125 9.460938 17.117188 C 9.460938 17.550781 9.378906 17.972656 9.226562 18.378906 Z M 4.515625 17.222656 L 4.515625 17.027344 C 4.5625 16.324219 5.144531 15.777344 5.847656 15.777344 C 6.585938 15.777344 7.1875 16.378906 7.1875 17.117188 C 7.1875 17.683594 6.816406 18.195312 6.277344 18.378906 L 5.417969 18.378906 C 4.90625 18.203125 4.546875 17.738281 4.515625 17.222656 Z M 19.484375 22.980469 L 4.515625 22.980469 L 4.515625 19.398438 L 19.484375 19.398438 Z M 10.304688 18.378906 C 10.375 18.132812 10.421875 17.882812 10.453125 17.628906 L 11.539062 17.628906 L 11.539062 16.605469 L 10.453125 16.605469 C 10.355469 15.738281 10.019531 14.941406 9.511719 14.28125 L 10.261719 13.527344 L 9.542969 12.804688 L 8.800781 13.546875 C 8.148438 13.007812 7.34375 12.640625 6.464844 12.523438 L 6.464844 11.53125 L 5.441406 11.53125 L 5.441406 12.5 C 5.128906 12.527344 4.816406 12.589844 4.515625 12.679688 L 4.515625 1.019531 L 19.484375 1.019531 L 19.484375 18.378906 Z M 10.304688 18.378906"/>
    <path d="M 17.058594 10.832031 L 17.789062 10.097656 L 17.070312 9.375 L 16.347656 10.097656 C 16.113281 9.945312 15.851562 9.832031 15.570312 9.769531 L 15.570312 8.753906 L 14.550781 8.753906 L 14.550781 9.769531 C 14.269531 9.832031 14.003906 9.945312 13.773438 10.097656 L 13.050781 9.375 L 12.328125 10.097656 L 13.0625 10.832031 C 12.917969 11.0625 12.816406 11.320312 12.761719 11.597656 L 11.707031 11.597656 L 11.707031 12.617188 L 12.785156 12.617188 C 12.851562 12.878906 12.957031 13.125 13.101562 13.34375 L 12.328125 14.117188 L 13.050781 14.839844 L 13.835938 14.050781 C 14.054688 14.1875 14.292969 14.285156 14.550781 14.339844 L 14.550781 15.460938 L 15.570312 15.460938 L 15.570312 14.339844 C 15.828125 14.285156 16.066406 14.1875 16.28125 14.050781 L 17.070312 14.839844 L 17.789062 14.117188 L 17.015625 13.34375 C 17.160156 13.125 17.269531 12.878906 17.335938 12.617188 L 18.410156 12.617188 L 18.410156 11.597656 L 17.359375 11.597656 C 17.304688 11.320312 17.199219 11.0625 17.058594 10.832031 Z M 15.058594 13.375 C 14.332031 13.375 13.738281 12.785156 13.738281 12.054688 C 13.738281 11.324219 14.332031 10.730469 15.058594 10.730469 C 15.789062 10.730469 16.382812 11.324219 16.382812 12.054688 C 16.382812 12.785156 15.789062 13.375 15.058594 13.375 Z M 15.058594 13.375"/>
</svg>

<svg xmlns="http://www.w3.org/2000/svg" width="32" height="32" viewBox="0 0 24 24">
    <path d="M9.703 20.68h4.504v1.02H9.703zm0 0"/>
    <path d="M3.496 0v24h17.008V0zm5.73 18.379h-1.39c.238-.371.375-.805.375-1.262a2.366 2.366 0 0 0-2.363-2.363c-.493 0-.953.152-1.332.418v-1.41a3.53 3.53 0 0 1 1.332-.258 3.618 3.618 0 0 1 3.613 3.613c0 .434-.082.856-.234 1.262zm-4.71-1.156v-.196a1.337 1.337 0 1 1 1.761 1.352h-.859a1.33 1.33 0 0 1-.902-1.156zm14.968 5.757H4.516v-3.582h14.968zm-9.18-4.601c.071-.246.118-.496.15-.75h1.085v-1.024h-1.086a4.663 4.663 0 0 0-.941-2.324l.75-.754-.719-.722-.742.742a4.63 4.63 0 0 0-2.336-1.024v-.992H5.44v.969c-.312.027-.625.09-.925.18V1.02h14.968v17.359zm0 0"/>
    <path d="M17.059 10.832l.73-.734-.719-.723-.722.723a2.368 2.368 0 0 0-.778-.328V8.754h-1.02V9.77a2.334 2.334 0 0 0-.777.328l-.722-.723-.723.723.735.734c-.145.23-.247.488-.301.766h-1.055v1.02h1.078c.067.26.172.507.317.726l-.774.773.723.723.785-.79c.219.137.457.235.715.29v1.12h1.02v-1.12c.257-.055.495-.152.71-.29l.79.79.718-.723-.773-.773c.144-.219.254-.465.32-.727h1.074v-1.02h-1.05a2.34 2.34 0 0 0-.301-.765zm-2 2.543a1.321 1.321 0 1 1 .001-2.642 1.321 1.321 0 0 1-.001 2.642zm0 0"/>
</svg>
